_cdn/img/vt-corporal.svg

<svg width="70" height="70" viewBox="0 0 70 70" fill="none" xmlns="http://www.w3.org/2000/svg">
<path d="M39.3446 25.7988C39.4055 25.7988 39.468 25.7933 39.5299 25.7816C40.2487 25.6509 40.9582 25.4735 41.6539 25.2507C41.7825 25.2096 41.9018 25.1435 42.0048 25.0562C42.1079 24.9689 42.1927 24.8622 42.2545 24.7421C42.3163 24.6221 42.3539 24.491 42.365 24.3564C42.3761 24.2218 42.3606 24.0863 42.3193 23.9578C42.1463 23.4168 41.5668 23.1194 41.0259 23.2923C40.4153 23.4876 39.7926 23.6432 39.1619 23.758C39.029 23.7822 38.9022 23.8322 38.7887 23.9054C38.6751 23.9786 38.5771 24.0734 38.5003 24.1845C38.4234 24.2955 38.3692 24.4206 38.3407 24.5527C38.3122 24.6847 38.31 24.821 38.3342 24.9539C38.3772 25.1907 38.5018 25.4049 38.6864 25.5593C38.871 25.7137 39.1039 25.7984 39.3446 25.7988Z" fill="#333333"/>
<path d="M44.2231 24.0326C44.403 24.0326 44.5796 23.9852 44.7354 23.8953C45.9285 23.208 46.5822 22.606 46.6094 22.581C47.0243 22.1955 47.0484 21.5481 46.6643 21.1317C46.2803 20.7152 45.6305 20.6888 45.2124 21.0712C45.2075 21.076 44.683 21.5519 43.7089 22.1126C43.4726 22.2489 43.3001 22.4733 43.2292 22.7367C43.1584 23.0001 43.1949 23.2808 43.3309 23.5173C43.4212 23.6741 43.5512 23.8043 43.7079 23.8948C43.8645 23.9853 44.0423 24.0328 44.2232 24.0327L44.2231 24.0326Z" fill="#333333"/>
<path d="M34.1717 26.0604C34.3619 26.0567 34.552 26.0501 34.7421 26.0407H35.4475C35.6985 26.0535 35.9507 26.0604 36.1991 26.0631H36.2086C36.4797 26.063 36.7397 25.9558 36.9323 25.765C37.1248 25.5742 37.2342 25.3152 37.2368 25.0441C37.2381 24.909 37.2128 24.775 37.1623 24.6497C37.1118 24.5244 37.037 24.4103 36.9424 24.314C36.8477 24.2176 36.735 24.1408 36.6106 24.088C36.4863 24.0353 36.3528 24.0075 36.2177 24.0064C35.987 24.0042 35.7565 23.9972 35.5261 23.9855C35.5085 23.9845 35.4909 23.984 35.4732 23.984H34.7158C34.6984 23.984 34.681 23.9846 34.6636 23.9857C34.4846 23.9947 34.308 24.0006 34.1333 24.0037C33.5651 24.0149 33.1137 24.4839 33.1244 25.0515C33.1351 25.6192 33.604 26.0732 34.1717 26.0605V26.0604Z" fill="#333333"/>
<path d="M23.7512 22.7295C24.0411 22.9719 24.6686 23.4568 25.6146 23.9861C25.7676 24.072 25.94 24.1172 26.1155 24.1174C26.3432 24.1176 26.5645 24.0423 26.7448 23.9031C26.9251 23.764 27.0541 23.569 27.1116 23.3487C27.1692 23.1284 27.152 22.8952 27.0628 22.6857C26.9736 22.4762 26.8174 22.3023 26.6186 22.1911C25.7886 21.7271 25.2588 21.3094 25.0698 21.1513C24.9661 21.0647 24.8465 20.9994 24.7176 20.9591C24.5887 20.9187 24.4532 20.9042 24.3187 20.9162C24.1841 20.9283 24.0533 20.9667 23.9337 21.0294C23.8141 21.092 23.7079 21.1776 23.6214 21.2812C23.5348 21.3848 23.4695 21.5045 23.4291 21.6334C23.3888 21.7622 23.3743 21.8978 23.3863 22.0322C23.3984 22.1667 23.4368 22.2975 23.4994 22.4172C23.562 22.5368 23.6476 22.6429 23.7512 22.7295Z" fill="#333333"/>
<path d="M28.7099 25.3058C29.408 25.5208 30.1192 25.6904 30.8392 25.8137C31.108 25.8596 31.384 25.7968 31.6065 25.6391C31.8291 25.4815 31.9799 25.242 32.0259 24.9732C32.0487 24.8401 32.0451 24.7038 32.0152 24.5721C31.9853 24.4405 31.9298 24.316 31.8518 24.2058C31.7738 24.0956 31.6748 24.0018 31.5605 23.9299C31.4463 23.8579 31.319 23.8092 31.1859 23.7865C30.5537 23.6782 29.9291 23.5292 29.3161 23.3405C29.0555 23.2601 28.7736 23.2865 28.5324 23.4139C28.2913 23.5413 28.1106 23.7592 28.0301 24.0198C27.8629 24.5623 28.1673 25.1386 28.7099 25.3058Z" fill="#333333"/>
<path d="M33.518 31.8069C33.6531 31.8069 33.7869 31.7804 33.9117 31.7287C34.0365 31.677 34.15 31.6012 34.2455 31.5057C34.341 31.4102 34.4168 31.2968 34.4685 31.1719C34.5201 31.0471 34.5467 30.9133 34.5467 30.7782C34.5468 30.6328 34.6046 30.4934 34.7074 30.3906C34.8102 30.2877 34.9497 30.2299 35.0951 30.2297C35.3974 30.2297 35.6436 30.476 35.6436 30.7782C35.6436 31.051 35.7519 31.3125 35.9448 31.5054C36.1376 31.6982 36.3992 31.8066 36.6719 31.8066C36.9446 31.8066 37.2062 31.6982 37.399 31.5054C37.5919 31.3125 37.7002 31.051 37.7002 30.7782C37.7002 29.3416 36.5317 28.1731 35.0951 28.1731C33.6586 28.1731 32.49 29.3416 32.49 30.7782C32.49 30.9133 32.5165 31.047 32.5682 31.1718C32.6198 31.2966 32.6955 31.41 32.791 31.5055C32.8865 31.6011 32.9998 31.6769 33.1246 31.7286C33.2494 31.7803 33.3831 31.8069 33.5182 31.8069H33.518Z" fill="#333333"/>
<path d="M33.8844 20.0934V20.8207C33.8844 20.9558 33.911 21.0895 33.9627 21.2142C34.0144 21.3389 34.0901 21.4523 34.1856 21.5477C34.281 21.6432 34.3944 21.7189 34.5191 21.7706C34.6438 21.8223 34.7775 21.8489 34.9126 21.8489C35.0476 21.8489 35.1813 21.8223 35.3061 21.7707C35.4309 21.719 35.5443 21.6433 35.6398 21.5478C35.7353 21.4524 35.811 21.339 35.8628 21.2143C35.9145 21.0895 35.9411 20.9558 35.9411 20.8207V20.0929C36.1316 20.2739 36.3843 20.3748 36.6471 20.3748C36.902 20.375 37.1479 20.2802 37.3366 20.1088C37.7574 19.7281 37.7905 19.0776 37.4092 18.6568L35.6772 16.7416C35.5809 16.6351 35.4633 16.55 35.332 16.4917C35.2008 16.4334 35.0588 16.4032 34.9152 16.4031H34.9146C34.7711 16.4031 34.6291 16.4331 34.4979 16.4912C34.3667 16.5493 34.249 16.6343 34.1525 16.7405L32.4168 18.6557C32.0354 19.0765 32.067 19.727 32.4878 20.1083C32.6798 20.282 32.9302 20.377 33.1891 20.3742C33.448 20.3714 33.6963 20.2711 33.8844 20.0933V20.0934Z" fill="#333333"/>
<path d="M58.9972 38.4131C58.9921 38.3734 58.9848 38.334 58.9754 38.2951C58.6616 37.0605 58.2817 35.8436 57.8373 34.6497C56.9871 32.3681 55.9356 30.1747 54.9694 27.945C53.2883 24.0641 51.6353 19.9005 51.4938 15.4257C51.4575 14.2673 51.4922 13.0459 51.5973 11.7958C51.6201 11.524 51.534 11.2542 51.358 11.0459C51.1819 10.8376 50.9303 10.7077 50.6585 10.6848C50.093 10.6363 49.5952 11.0571 49.5477 11.6233C49.4361 12.9519 49.3992 14.2534 49.4383 15.4903C49.591 20.3288 51.3229 24.7017 53.0837 28.7664C53.1835 28.9966 53.285 29.2273 53.3864 29.458C50.3553 30.6938 46.2361 31.8148 41.3835 32.7195C37.1548 33.5078 33.0431 33.5078 28.814 32.7195C23.9583 31.8137 19.8366 30.6922 16.8041 29.4548C16.9056 29.2251 17.0065 28.9955 17.1059 28.7658C18.8668 24.7017 20.5986 20.3289 20.7513 15.4903C20.886 11.2333 20.15 6.5454 18.4363 0.737594C18.3565 0.479062 18.1781 0.26238 17.9396 0.134498C17.7012 0.00661701 17.422 -0.0221631 17.1625 0.054394C16.903 0.130951 16.6841 0.306679 16.5532 0.543501C16.4224 0.780323 16.3901 1.05916 16.4634 1.3196C18.1136 6.91125 18.8229 11.3936 18.6958 15.4251C18.5543 19.9016 16.9002 24.0667 15.2185 27.9488C14.2546 30.1736 13.2101 32.3665 12.3602 34.6491C11.9165 35.8421 11.5682 36.9588 11.2515 38.1867C11.2419 38.2229 11.2318 38.2588 11.2227 38.2951C11.2217 38.2984 11.221 38.3018 11.2206 38.3052C8.85847 47.5946 10.2844 57.8095 15.5437 69.3964C15.5995 69.5194 15.679 69.6302 15.7776 69.7225C15.8762 69.8147 15.992 69.8867 16.1184 69.9342C16.2448 69.9817 16.3794 70.0039 16.5143 69.9994C16.6493 69.9949 16.7821 69.9638 16.905 69.908C17.1534 69.7952 17.3469 69.5884 17.4429 69.3331C17.5388 69.0777 17.5294 68.7947 17.4168 68.5463C12.5331 57.7882 11.0748 48.3081 12.999 39.7188C14.4191 39.9608 15.9048 40.2506 17.5134 40.5999C19.3356 40.9956 21.0799 41.6172 22.6975 42.4478C22.9398 42.5684 23.2199 42.5887 23.477 42.5043C23.7341 42.4198 23.9476 42.2374 24.0712 41.9966C24.1948 41.7558 24.2185 41.476 24.1371 41.2179C24.0558 40.9598 23.876 40.7441 23.6368 40.6176C21.8601 39.7059 19.9466 39.0234 17.9497 38.5897C16.3747 38.248 14.9125 37.9606 13.5132 37.7187C13.8706 36.4914 14.3064 35.2728 14.7892 34.0823C15.1214 33.2625 15.4755 32.4512 15.8333 31.6427C15.8781 31.5401 15.9235 31.4381 15.9689 31.3361C19.1567 32.6478 23.3437 33.7918 28.437 34.7413C32.92 35.5772 37.2777 35.5772 41.7606 34.7413C46.8502 33.7923 51.035 32.6495 54.2223 31.3389C54.8087 32.6596 55.3983 34.0128 55.9019 35.3662C56.189 36.1411 56.4475 36.9263 56.6768 37.7202C55.2803 37.9617 53.8208 38.2485 52.2478 38.5897C48.4774 39.4084 45.0622 41.088 42.3716 43.4469C40.1766 45.3717 38.2443 47.5768 36.3762 49.7093C35.957 50.1873 35.5292 50.6754 35.0988 51.1603C34.6716 50.6781 34.246 50.1944 33.8219 49.7093C31.9538 47.5768 30.0215 45.3717 27.826 43.4469C27.6209 43.2672 27.3529 43.1763 27.0808 43.1941C26.8087 43.2119 26.5548 43.337 26.375 43.542C26.0006 43.9692 26.0427 44.6193 26.47 44.9931C28.5636 46.8292 30.4504 48.9825 32.2752 51.0648C32.859 51.7313 33.4608 52.4175 34.0665 53.0909V68.9712C34.0665 69.1062 34.0931 69.24 34.1448 69.3647C34.1965 69.4895 34.2723 69.6028 34.3678 69.6983C34.4633 69.7938 34.5767 69.8695 34.7015 69.9211C34.8262 69.9728 34.96 69.9994 35.095 69.9993C35.3677 69.9993 35.6292 69.891 35.822 69.6982C36.0148 69.5054 36.1231 69.2439 36.1231 68.9712V53.1008C36.7319 52.424 37.3365 51.7346 37.9234 51.0649C39.7478 48.9827 41.634 46.8294 43.7276 44.9938C46.1565 42.864 49.254 41.3445 52.6843 40.6001C54.2901 40.2514 55.7731 39.9619 57.1912 39.7199C59.1148 48.3092 57.6563 57.7886 52.7734 68.5461C52.7023 68.7027 52.6717 68.8747 52.6842 69.0462C52.6967 69.2177 52.7521 69.3833 52.8452 69.5279C52.9382 69.6726 53.0661 69.7915 53.217 69.874C53.3679 69.9564 53.5371 69.9997 53.7091 69.9999C53.9067 69.9999 54.1001 69.943 54.2663 69.836C54.4324 69.729 54.5641 69.5764 54.6458 69.3964C59.8855 57.8543 61.321 47.6741 58.9972 38.4131Z" fill="#333333"/>
<path d="M51.0577 7.96072C51.1248 7.97343 51.1916 7.9804 51.2578 7.9804C51.4958 7.98005 51.7263 7.89721 51.91 7.74599C52.0938 7.59477 52.2194 7.38453 52.2656 7.15107C52.6219 5.3513 53.0993 3.44407 53.7263 1.32015C53.8034 1.05853 53.7735 0.776972 53.6431 0.537399C53.5127 0.297826 53.2925 0.119861 53.0309 0.0426491C52.9014 0.0044032 52.7656 -0.00794695 52.6314 0.00630446C52.4971 0.0205559 52.3669 0.0611294 52.2483 0.125706C52.1298 0.190283 52.0251 0.277597 51.9402 0.382658C51.8554 0.487719 51.7921 0.608467 51.754 0.738001C51.1088 2.92277 50.6165 4.89042 50.2479 6.75212C50.1951 7.01975 50.2507 7.2974 50.4025 7.52403C50.5543 7.75067 50.7899 7.90774 51.0575 7.96072H51.0577Z" fill="#333333"/>
</svg>

<svg width="70" height="70" fill="none" xmlns="http://www.w3.org/2000/svg"><path d="M39.345 25.799a1 1 0 00.185-.017 16.866 16.866 0 002.124-.531 1.026 1.026 0 00.665-1.293 1.029 1.029 0 00-1.293-.666c-.61.196-1.233.351-1.864.466a1.028 1.028 0 00.183 2.04zm4.878-1.766c.18 0 .357-.048.512-.138 1.194-.687 1.847-1.289 1.874-1.314a1.027 1.027 0 00.055-1.45 1.03 1.03 0 00-1.452-.06c-.005.005-.529.48-1.503 1.042a1.03 1.03 0 00.514 1.92zM34.172 26.06c.19-.003.38-.01.57-.02h.706c.25.014.503.02.751.023h.01a1.029 1.029 0 00.009-2.057 16.792 16.792 0 01-.745-.022h-.757a16.32 16.32 0 01-.583.02 1.029 1.029 0 00.039 2.056zm-10.421-3.33c.29.242.918.727 1.864 1.256a1.025 1.025 0 001.497-.637 1.028 1.028 0 00-.493-1.158c-.83-.464-1.36-.882-1.55-1.04a1.028 1.028 0 00-1.318 1.579zm4.959 2.576c.698.215 1.41.384 2.13.508a1.028 1.028 0 00.346-2.027 14.916 14.916 0 01-1.87-.447 1.029 1.029 0 10-.606 1.966zm4.808 6.501a1.029 1.029 0 001.029-1.029.549.549 0 011.097 0 1.028 1.028 0 102.056 0 2.608 2.608 0 00-2.605-2.605 2.608 2.608 0 00-2.605 2.605 1.028 1.028 0 001.028 1.029zm.366-11.714v.728a1.027 1.027 0 102.057 0v-.728a1.025 1.025 0 001.396.016c.42-.38.453-1.031.072-1.452l-1.732-1.915a1.027 1.027 0 00-.762-.339 1.03 1.03 0 00-.762.338l-1.736 1.915a1.028 1.028 0 001.467 1.437z" fill="#333"/><path d="M58.997 38.413a1.098 1.098 0 00-.022-.118 35.564 35.564 0 00-1.138-3.645c-.85-2.282-1.901-4.475-2.868-6.705-1.68-3.88-3.334-8.044-3.475-12.52a31.699 31.699 0 01.103-3.63 1.029 1.029 0 00-2.05-.172 33.712 33.712 0 00-.109 3.867c.153 4.839 1.885 9.212 3.646 13.276l.302.692c-3.03 1.236-7.15 2.357-12.003 3.261a33.7 33.7 0 01-12.569 0c-4.856-.905-8.977-2.027-12.01-3.264.102-.23.203-.46.302-.69 1.76-4.063 3.493-8.436 3.645-13.275.135-4.257-.601-8.945-2.315-14.752a1.028 1.028 0 00-1.973.582c1.65 5.591 2.36 10.074 2.233 14.105-.142 4.477-1.796 8.642-3.478 12.524-.963 2.225-2.008 4.418-2.858 6.7a34.83 34.83 0 00-1.108 3.538l-.03.108a.058.058 0 00-.001.01c-2.363 9.29-.937 19.505 4.323 31.091a1.03 1.03 0 101.873-.85c-4.884-10.758-6.342-20.238-4.418-28.827 1.42.242 2.906.532 4.514.88a21.196 21.196 0 015.184 1.849 1.03 1.03 0 00.94-1.83 23.28 23.28 0 00-5.687-2.028c-1.575-.342-3.037-.63-4.437-.871a37.956 37.956 0 011.276-3.637c.332-.82.687-1.63 1.044-2.44l.136-.306c3.188 1.312 7.375 2.456 12.468 3.405 4.483.836 8.84.836 13.324 0 5.09-.949 9.274-2.091 12.461-3.402.587 1.32 1.176 2.674 1.68 4.027.287.775.545 1.56.775 2.354-1.397.242-2.856.529-4.43.87-3.77.818-7.185 2.498-9.875 4.857-2.195 1.925-4.128 4.13-5.996 6.262a342.8 342.8 0 01-1.277 1.451c-.427-.482-.853-.966-1.277-1.45-1.868-2.133-3.8-4.338-5.996-6.263a1.029 1.029 0 00-1.356 1.546c2.094 1.836 3.98 3.99 5.805 6.072.584.666 1.186 1.352 1.791 2.026v15.88a1.028 1.028 0 102.057 0v-15.87c.609-.677 1.214-1.366 1.8-2.036 1.825-2.082 3.711-4.236 5.805-6.071 2.428-2.13 5.526-3.65 8.956-4.394 1.606-.349 3.09-.638 4.507-.88 1.924 8.59.465 18.069-4.418 28.826a1.029 1.029 0 001.873.85c5.24-11.542 6.675-21.722 4.351-30.983zM51.058 7.96a1.029 1.029 0 001.208-.81c.356-1.799.833-3.706 1.46-5.83a1.029 1.029 0 00-1.972-.582c-.645 2.185-1.137 4.152-1.506 6.014a1.03 1.03 0 00.81 1.209z" fill="#333"/></svg>
